X:1
T:Title
%%score { ( 1 3 ) | ( 2 4 ) }
L:1/8
M:4/4
K:D
V:1 treble nm="Grand Piano"
V:3 treble 
V:2 bass 
V:4 bass 
V:1
 z4 z2[Q:1/4=100] D2 | F3 [FA] [GB][FA][DF][FA] | d6 z2 | A3 B A2 F2 |[M:3/4] [CE]6 |[M:1/4] AG | %6
[M:4/4] F3 [FA] [GB][FA][DF][FA] | d2- [Gd-]2 [Ad]2 [Fd]2 | c3 A B2 c2 |[M:3/4] [CEA]6 | %10
[M:1/4] A2 |[M:4/4] [Fd]3 [Fe] [Fd][GB][FA][DF] | A2- [EA-]>[EA-] [DA]2 A2 | %13
 [Fd]3 [Fe] [Fd][GB][FA][A,DF] | A,4 z2 AG | F3 G A2 [FA]2 | [GB]2 [GB]2 [FA]2 [FA]2 | B3 c d2 B2 | %18
 [FA][EG][DF][EG] [FA]2 d-[^G,Ed] | [Fd]3[K:bass] [F,A,D] [A,DF]2 [G,CE]2 |[M:3/4] [F,D]6 |] %21
V:2
 z4 z2 [D,F,]2 | [D,A,D]3 [D,D] [D,D]2 [D,A,]2 | [D,A,]2 [E,A,]2 [F,A,]2 [G,DG]2 | %3
 [F,D]3 [G,D] [F,D]2 [D,A,D]2 |[M:3/4] z2 z2 A,2 |[M:1/4] F,E, | %6
[M:4/4] [D,A,D]3 [D,D] [D,D]2 [D,A,]2 | [D,A,]2 [E,A,]2 [F,A,]2 [D,A,]2 | %8
 [E,A,E]3 [E,CE] [E,DE]2 [E,E]2 |[M:3/4] z2 G,2 F,2 |[M:1/4] A,2 | %11
[M:4/4] [D,A,]3 [D,A,] [D,A,][D,D][D,D][D,A,] | [D,D]2 [E,C]>[E,C] F,2 A,2 | %13
 [D,A,]3 [D,A,] [D,A,][D,D][D,D]D, | z4 A,2 z2 | [D,A,D]3 [E,A,C] [F,A,D]2 [D,D]2 | %16
 [G,D]2 [G,D]2 [D,D]2 [D,D]2 | [G,DG]3 [G,DG] [B,DG]2 [G,DG]2 | [D,D]2 [D,A,]2 [D,D]2 .[B,,F,]2 | %19
 [A,,A,]3 A,, A,,2 A,,2 |[M:3/4] D,6 |] %21
V:3
 x8 | x8 | F2 GG A2 B2 | x8 |[M:3/4] A,4 z2 |[M:1/4] [A,C]2 |[M:4/4] x8 | F2 z2 z4 | x8 | %9
[M:3/4] x6 |[M:1/4] x2 |[M:4/4] x8 | F2 z2 z4 | x8 | [CE]6 [A,C]2 | x8 | x8 | x8 | z4 z2 .D2 | %19
 x3[K:bass] x5 |[M:3/4] x6 |] %21
V:4
 x8 | x8 | x8 | x8 |[M:3/4] A,,A,, C,E, z G, |[M:1/4] x2 |[M:4/4] x8 | x8 | x8 |[M:3/4] A,,6 | %10
[M:1/4] x2 |[M:4/4] x8 | x8 | x8 | A,,A,,C,E, z G,F,E, | x8 | x8 | x8 | x8 | x8 |[M:3/4] x6 |] %21

